!! 00000] TT[WS
!!!OTL: Liao gege
!!!ARE: Asia, China, Shanxi Hequ
!! Ethnic Group: Han
!! WI, 272 (2)
!!!SCT: J0325
!!!YEM: Copyright 1995, estate of Helmut Schaffrath.
**kern
*ICvox
*Ivox
*M2/4
*k[b-]
*F:
{8.ff
16dd
8cc
16cc
16cc
=1
8cc
8d
4f
=2
8f
8b-
8b-
16d
16d
=3
2c}
=4
{8.ff
16dd
8cc
16cc
16cc
=5
8cc
8d
4f
=6
8.f
16b-
8b-
16d
16d
=7
2f}
==
!!!AGN: Xiaodiao. Qingge
!!!ONB: ESAC (Essen Associative Code) Database: CHINA
!!!AMT: simple duple
!!!AIN: vox
!!!EED: Helmut Schaffrath
!!!EEV: 1.0
*-
